projects/seb-pictograms/svg/regular/53-Picto-Regular_black.svg

<svg xmlns="http://www.w3.org/2000/svg" viewBox="0 0 170 170"><path d="M33.1 58.4h36.3l12.2 12.1a3 3 0 002.1.9l1.1-.2a3 3 0 001.9-2.8v-10H92a3 3 0 003-3V8a3 3 0 00-3-3H33.1a3 3 0 00-3 3v47.4a3 3 0 003 3zm3-47.4H89v41.4h-5.3a3 3 0 00-3 3v5.8l-8-8a3 3 0 00-2.1-.9H36.1zm94.2 69.2a17.5 17.5 0 10-17.5-17.5 17.5 17.5 0 0017.5 17.5zm0-29a11.5 11.5 0 11-11.5 11.5 11.5 11.5 0 0111.5-11.5zm-90 53.8a17.5 17.5 0 10-17.5-17.5A17.5 17.5 0 0040.3 105zm0-29a11.5 11.5 0 11-11.5 11.5A11.5 11.5 0 0140.3 76zm115.2 56.8h-.2v-26.1a17.4 17.4 0 00-17.2-17.4h-15.5a17.4 17.4 0 00-17.2 17.4v26.1h-40v-1.4A17.4 17.4 0 0048 114H32.5a17.4 17.4 0 00-17.2 17.4v1.4H5v6h10.3V165h6v-33.5A11.3 11.3 0 0132.5 120H48a11.3 11.3 0 0111.2 11.4V165h6v-26.2H165v-6zm-32.9-37.5h15.5a11.3 11.3 0 0111.2 11.4v26.1h-38v-26.1a11.3 11.3 0 0111.3-11.4z"/></svg>

<svg id="PIKTO_REGULAR" xmlns="http://www.w3.org/2000/svg" viewBox="0 0 170 170"><title>regular_black</title><path d="M33.1,58.4H69.4L81.6,70.5a3,3,0,0,0,2.1.9l1.1-.2a3,3,0,0,0,1.9-2.8v-10H92a3,3,0,0,0,3-3V8a3,3,0,0,0-3-3H33.1a3,3,0,0,0-3,3V55.4A3,3,0,0,0,33.1,58.4Zm3-47.4H89V52.4H83.7a3,3,0,0,0-3,3v5.8l-8-8a3,3,0,0,0-2.1-.9H36.1Z"/><path d="M130.3,80.2a17.5,17.5,0,1,0-17.5-17.5A17.5,17.5,0,0,0,130.3,80.2Zm0-29a11.5,11.5,0,1,1-11.5,11.5A11.5,11.5,0,0,1,130.3,51.2Z"/><path d="M40.3,105A17.5,17.5,0,1,0,22.8,87.5,17.5,17.5,0,0,0,40.3,105Zm0-29A11.5,11.5,0,1,1,28.8,87.5,11.5,11.5,0,0,1,40.3,76Z"/><path d="M155.5,132.8h-.2V106.7a17.4,17.4,0,0,0-17.2-17.4H122.6a17.4,17.4,0,0,0-17.2,17.4v26.1h-40v-1.4A17.4,17.4,0,0,0,48,114H32.5a17.4,17.4,0,0,0-17.2,17.4v1.4H5v6H15.3V165h6V131.5A11.3,11.3,0,0,1,32.5,120H48a11.3,11.3,0,0,1,11.2,11.4V165h6V138.8H165v-6ZM122.6,95.3h15.5a11.3,11.3,0,0,1,11.2,11.4v26.1h-38V106.7A11.3,11.3,0,0,1,122.6,95.3Z"/></svg>
